X: 061069
T: Fred Flynn's
S: P.Reddan: "Knockanalban"
L: 1/8
M: 4/4
R: reel
K: G
ge|dGBG AEGE|DGGA BGAG|EA A2 EABA|Bdef gfge|
dGBG AEEG|DGGA BdAG|cBcd edge|dBAc BG :|
GA|BGGD G2 FG|BGdG eGdG|Be e2 BeGA|Beed BdAd|
dGBG AEEG|DGGA BdAG|cBcd edge|dBAc BG :|
